assets/images/icons/home/net_buy_icon.svg

<svg fill="none" height="22" viewBox="0 0 55 22" width="55" xmlns="http://www.w3.org/2000/svg"><circle cx="44" cy="11" r="10.5" stroke="#f6645a"/><path d="m40.1811 17c-.32 0-.48-.16-.48-.48v-9.92c0-.32.16-.48.48-.48h4.544c1.0453 0 1.8453.26133 2.4.784.5546.52267.832 1.22133.832 2.096 0 .52267-.1387.992-.416 1.408-.2667.416-.6454.7253-1.136.928 1.2586.3947 1.888 1.2533 1.888 2.576 0 .576-.128 1.0987-.384 1.568s-.6454.8427-1.168 1.12c-.5227.2667-1.1574.4-1.904.4zm4.416-6.208c.6186 0 1.0933-.1547 1.424-.464.3413-.32.512-.76267.512-1.328 0-.608-.1547-1.04533-.464-1.312-.2987-.26667-.7947-.4-1.488-.4h-3.424v3.504zm.224 5.04c.704 0 1.2213-.176 1.552-.528.3306-.3627.496-.8267.496-1.392 0-.6507-.2027-1.1413-.608-1.472-.4054-.3307-.9707-.496-1.696-.496h-3.408v3.888z" fill="#f6645a"/><g stroke="#f6645a"><path d="m43.5 4v15"/><path d="m14.4062 2.125-13.12495 9.375 13.12495 9.375v-4.6875h12.0313c.2901 0 .5683-.0823.7734-.2288s.3203-.3452.3203-.5525v-7.81245c0-.2072-.1152-.40591-.3203-.55243-.2051-.14651-.4833-.22882-.7734-.22882h-12.0313z" fill="#f6645a" stroke-linecap="round" stroke-linejoin="round"/></g></svg>

<svg width="55" height="22" viewBox="0 0 55 22" fill="none" xmlns="http://www.w3.org/2000/svg">
<circle cx="44" cy="11" r="10.5" stroke="#F6645A"/>
<path d="M40.1811 17C39.8611 17 39.7011 16.84 39.7011 16.52V6.6C39.7011 6.28 39.8611 6.12 40.1811 6.12H44.7251C45.7704 6.12 46.5704 6.38133 47.1251 6.904C47.6797 7.42667 47.9571 8.12533 47.9571 9C47.9571 9.52267 47.8184 9.992 47.5411 10.408C47.2744 10.824 46.8957 11.1333 46.4051 11.336C47.6637 11.7307 48.2931 12.5893 48.2931 13.912C48.2931 14.488 48.1651 15.0107 47.9091 15.48C47.6531 15.9493 47.2637 16.3227 46.7411 16.6C46.2184 16.8667 45.5837 17 44.8371 17H40.1811ZM44.5971 10.792C45.2157 10.792 45.6904 10.6373 46.0211 10.328C46.3624 10.008 46.5331 9.56533 46.5331 9C46.5331 8.392 46.3784 7.95467 46.0691 7.688C45.7704 7.42133 45.2744 7.288 44.5811 7.288H41.1571V10.792H44.5971ZM44.8211 15.832C45.5251 15.832 46.0424 15.656 46.3731 15.304C46.7037 14.9413 46.8691 14.4773 46.8691 13.912C46.8691 13.2613 46.6664 12.7707 46.2611 12.44C45.8557 12.1093 45.2904 11.944 44.5651 11.944H41.1571V15.832H44.8211Z" fill="#F6645A"/>
<line x1="43.5" y1="4" x2="43.5" y2="19" stroke="#F6645A"/>
<path d="M14.4062 2.125L1.28125 11.5L14.4062 20.875V16.1875H26.4375C26.7276 16.1875 27.0058 16.1052 27.2109 15.9587C27.416 15.8122 27.5312 15.6135 27.5312 15.4062V7.59375C27.5312 7.38655 27.416 7.18784 27.2109 7.04132C27.0058 6.89481 26.7276 6.8125 26.4375 6.8125H14.4062V2.125Z" fill="#F6645A" stroke="#F6645A" stroke-linecap="round" stroke-linejoin="round"/>
</svg>
